X:1118
T:Banish Misfortune
M:6/8
L:1/8
Q:200
C:Trad Irish
R:jig
K:D
e|fed =cAG|A2 d =cAG|F2 D DED|FEF GFG|!
AGA =cAG|AGA =cde|fed =cAG|Adc d2:|!
e|f2 d dcd|f2 g agf|e2 =c cBc|e2 f gfe|!
f2 g agf|e2 f gfe|fed =cAG|Adc d2:|!
e|f2 g e2 f|d2 e =c2 d|ABA GAG|FAF GED|!
=c3 cAG|AGA =cde|fed =cAG|Adc d2:|!


